remix/Document/numbers-fill.svg

<svg viewBox="0 0 24 24" xmlns="http://www.w3.org/2000/svg"><path fill="none" d="M0 0h24v24H0Z"/><path d="M9 18H4v-8h5v8Zm6 0h-5V6h5v12Zm6 0h-5V2h5v16Zm1 4H3v-2h19v2Z"/></svg>

<svg viewBox="0 0 24 24" fill="currentColor" xmlns="http://www.w3.org/2000/svg"><path d="M9 18H4V10H9V18ZM15 18H10V6H15V18ZM21 18H16V2H21V18ZM22 22H3V20H22V22Z"/></svg>
